X:216
T:Squire & Farmer (Luxton)
%%VWML:SBG-1-2-335-0
F:http://www.vwml.org/record/SBG/1/2/335
Z:Original Sibelius transcriptions by M. & S. Graebe
M:3/8
I:linebreak $
K:G
V:1 treble nm="P1"
V:1
 B | BEE | EFD | E2 E | FDD | DED | F!fermata!A B | BFE | EFD | E2 E |$ FDD | DED | F!fermata!A F | %13
w: |||||||||||||
 GAB | BAG | (F!fermata!A) G | GAB | BAG | F!fermata!A c |$ GAB | BAG | AGA | BcB | AGF | AEF | %25
w: ||||B * *|* * C|||||||
 GAG | FED | E4 | %28
w: |||



